X: 1
T: One That Got Away, The
Z: zoronic
S: https://thesession.org/tunes/15679#setting29424
R: jig
M: 6/8
L: 1/8
K: Gmin
|:G,B,D GDB,|A,CF AFC|B,DB AFC|B,DG   B,A,G|
G,B,D GDB,|A,CF AFC|B,DG BdB|cAF  [1 G2D:|2 GBd|]
|:~g3   bag |afc  Acf|GBd  Adf|c=eg    bag |
G2b   afc |Bdg  fcA|GBd  cAF|DGF  [1 G3 :|2 G2A|]
|:BGD   cAF |dBG  ecA|dBc  ABG|AFG     DEC |
DB,G, GDB,|BGD  dBG|cAF  edc|dg^f    g2A:|
